X:421
T: IST DENN DIESES WIRKLICH WAHR
N: E0349
O: Europa, Mitteleuropa, Deutschland, Schlesien; Posen; Schwaben
R: historisches Lied, Napoleons russischer Feldzug (1812)
M: 2/4
L: 1/8
K: G
 | DGGG | FAD2 |
DAAA | AdcA |
GBBB | Bdd2 |
ABcF | A2G2

@@@ Tune index: 4071
